src/img/i-settings32.svg

<svg xmlns="http://www.w3.org/2000/svg" xmlns:xlink="http://www.w3.org/1999/xlink" width="32" height="32" viewBox="0 0 32 32">
  <defs>
    <path id="i-settings32-a" d="M15,7 L12.9,7 C12.7710561,6.37401379 12.5225111,5.77879614 12.168,5.247 L13.658,3.757 C14.0369722,3.36462111 14.0315524,2.74091522 13.6458186,2.35518142 C13.2600848,1.96944763 12.6363789,1.96402779 12.244,2.343 L10.754,3.833 C10.2219668,3.47804056 9.62639878,3.22915153 9.00000003,3.1 L9.00000003,1 C9.00000003,0.44771525 8.55228475,0 8.00000003,0 C7.44771525,0 7.00000003,0.44771525 7.00000003,1 L7.00000003,3.1 C6.37402122,3.22896798 5.77880803,3.47751108 5.247,3.832 L3.757,2.342 C3.36625854,1.95153469 2.73296532,1.95175855 2.34250001,2.34250001 C1.9520347,2.73324147 1.95225855,3.36653468 2.343,3.757 L3.833,5.247 C3.47813627,5.7787198 3.22924988,6.37394195 3.1,7 L1.00000003,7 C0.447715262,7 2.98023224e-08,7.44771526 2.98023224e-08,8 C2.98023224e-08,8.55228474 0.447715262,9 1.00000003,9 L3.1,9 C3.22926993,9.62982069 3.47956562,10.2285606 3.837,10.763 C3.823,10.776 3.805,10.78 3.792,10.793 L2.342,12.243 C2.08204342,12.4940745 1.9777874,12.8658779 2.06930284,13.2155073 C2.16081828,13.5651368 2.43386324,13.8381817 2.78349268,13.9296972 C3.13312211,14.0212126 3.50492553,13.9169566 3.756,13.657 L5.206,12.207 C5.219,12.194 5.224,12.176 5.236,12.162 C5.77066383,12.5199057 6.36975882,12.7705475 7.00000003,12.9 L7.00000003,15 C7.00000003,15.5522847 7.44771525,16 8.00000003,16 C8.55228475,16 9.00000003,15.5522847 9.00000003,15 L9.00000003,12.9 C9.62597878,12.771032 10.221192,12.5224889 10.753,12.168 L12.243,13.658 C12.6353789,14.0369722 13.2590848,14.0315524 13.6448186,13.6458186 C14.0305524,13.2600848 14.0359722,12.6363789 13.657,12.244 L12.167,10.754 C12.5219817,10.2219787 12.7708726,9.62640622 12.9,9 L15,9 C15.5522847,9 16,8.55228475 16,8 C16,7.44771525 15.5522847,7 15,7 Z M5,8 C5,6.34314575 6.34314575,5 8,5 C9.65685425,5 11,6.34314575 11,8 C11,9.65685425 9.65685425,11 8,11 C6.34314575,11 5,9.65685425 5,8 Z"/>
  </defs>
  <use fill="#0C0C0D" fill-opacity=".8" fill-rule="evenodd" transform="translate(8 8)" xlink:href="#i-settings32-a"/>
</svg>

<svg xmlns="http://www.w3.org/2000/svg" xmlns:xlink="http://www.w3.org/1999/xlink" width="32" height="32"><defs><path id="a" d="M15 7h-2.1a4.967 4.967 0 00-.732-1.753l1.49-1.49a1 1 0 00-1.414-1.414l-1.49 1.49A4.968 4.968 0 009 3.1V1a1 1 0 00-2 0v2.1a4.968 4.968 0 00-1.753.732l-1.49-1.49a1 1 0 00-1.414 1.415l1.49 1.49A4.967 4.967 0 003.1 7H1a1 1 0 100 2h2.1c.13.63.38 1.229.737 1.763-.014.013-.032.017-.045.03l-1.45 1.45a1 1 0 101.414 1.414l1.45-1.45c.013-.013.018-.031.03-.045A4.968 4.968 0 007 12.9V15a1 1 0 002 0v-2.1a4.968 4.968 0 001.753-.732l1.49 1.49a1 1 0 001.414-1.414l-1.49-1.49A4.967 4.967 0 0012.9 9H15a1 1 0 000-2zM5 8a3 3 0 116 0 3 3 0 01-6 0z"/></defs><use fill="#0C0C0D" fill-opacity=".8" fill-rule="evenodd" transform="translate(8 8)" xlink:href="#a"/></svg>
